X:76
T:Smash the Windows
M:6/8
L:1/8
Q:170
R:Jig
S:PubScouts/M_Gailey/deliveryboys
K:D
|:dAF|"D"DED F2 A|d2f "A"ecA|"G"G2B"D"F2A|"Em"E2F "A7"GFE|!
"D"DED F2A|"Bm"d2f "A"ecA|"G"Bgf "A"edc|"D"d3:|!
|:dfg|"D"a2fd2f|A2a agf|"A"gfe c2e|A2 g gfe|!
"D"f2d "A"g2e|"D"agf "G"bag|"D"fed "A"edc|"D"d2d:|

